usr/share/icons/biglinux-icons-material/symbolic/actions/money-none-symbolic.svg

<svg width="16px" height="16px" version="1.1">
 <path d="m8 1v2h-3c-1.662 0-3 1.338-3 3s1.338 3 3 3h3v4h-5v1h5v2h1v-2h3c1.662 0 3-1.338 3-3s-1.338-3-3-3h-3v-4h5v-1h-5v-2zm-3 3h3v4h-3c-1.108 0-2-0.892-2-2s0.892-2 2-2zm4 5h3c1.108 0 2 0.892 2 2s-0.892 2-2 2h-3z" fill="#dedede" opacity=".35"/>
 <rect transform="rotate(45)" x=".31371" y="-.5" width="22" height="1" rx=".5" ry=".5" fill="#dedede"/>
</svg>

<svg width="16" height="16"><path fill="#dedede" d="M8 1v2H5C3.338 3 2 4.338 2 6s1.338 3 3 3h3v4H3v1h5v2h1v-2h3c1.662 0 3-1.338 3-3s-1.338-3-3-3H9V4h5V3H9V1zM5 4h3v4H5c-1.108 0-2-.892-2-2s.892-2 2-2zm4 5h3c1.108 0 2 .892 2 2s-.892 2-2 2H9z" opacity=".35"/><rect width="22" height="1" x=".314" y="-.5" fill="#dedede" rx=".5" ry=".5" transform="rotate(45)"/></svg>
